X:45
T:Island Dance
Z:Nigel Gatherer
Z:Jack Campin, http://www.campin.me.uk/
F:Jack Campin's Nine-Note Tunebook
% last edit 03-02-2013
M:2/4
L:1/8
Q:1/4=120
K:G
B2 d>B|AG E2      |A2 B>A|GE D2 |
B2 d>B|AG E/F/G/A/|Bd BA |G2 G2:|
D2 D>E|DG GF      |E2 E>D|EA AF |
D2 D>E|DG GA      |Bd BA |G2 G2:|

